X: 27939
T: Mountain Top, The
R: reel
M: 4/4
K: Gmajor
(dc)||BGAG (EGD)E|G2 (Bd) edgd|BGAG (EGD)E|GABd efgd|
BGAG (EGD)E|G2 (Bd) edgd|BGAG (EGD3/2)e/|dcAF G2 gz||
(B(d d2)) (eg)dB|d2 ef (g2 ~b2)|(B(d d2)) (eg)dB|AGAB AcBA|
(B(d d2)) (eg)dB|d2 (ef) gfga|bgaf gfed|egfa gedc||

